Numix-White/48/apps/qgo.svg

<?xml version="1.0" encoding="UTF-8" standalone="no"?>
<svg
   xmlns:dc="http://purl.org/dc/elements/1.1/"
   xmlns:cc="http://creativecommons.org/ns#"
   xmlns:rdf="http://www.w3.org/1999/02/22-rdf-syntax-ns#"
   xmlns:svg="http://www.w3.org/2000/svg"
   xmlns="http://www.w3.org/2000/svg"
   xmlns:sodipodi="http://sodipodi.sourceforge.net/DTD/sodipodi-0.dtd"
   xmlns:inkscape="http://www.inkscape.org/namespaces/inkscape"
   viewBox="0 0 48 48"
   id="svg2"
   version="1.1"
   inkscape:version="0.91 r13725"
   sodipodi:docname="checkers.svg">
  <metadata
     id="metadata61">
    <rdf:RDF>
      <cc:Work
         rdf:about="">
        <dc:format>image/svg+xml</dc:format>
        <dc:type
           rdf:resource="http://purl.org/dc/dcmitype/StillImage" />
      </cc:Work>
    </rdf:RDF>
  </metadata>
  <sodipodi:namedview
     pagecolor="#ffffff"
     bordercolor="#666666"
     borderopacity="1"
     objecttolerance="10"
     gridtolerance="10"
     guidetolerance="10"
     inkscape:pageopacity="0"
     inkscape:pageshadow="2"
     inkscape:window-width="767"
     inkscape:window-height="480"
     id="namedview59"
     showgrid="false"
     inkscape:zoom="4.9166667"
     inkscape:cx="24"
     inkscape:cy="24"
     inkscape:window-x="57"
     inkscape:window-y="31"
     inkscape:window-maximized="0"
     inkscape:current-layer="g45" />
  <defs
     id="defs4">
    <linearGradient
       id="linearGradient3764"
       x1="1"
       x2="47"
       gradientUnits="userSpaceOnUse"
       gradientTransform="matrix(0,-1,1,0,-1.5e-6,47.999998)">
      <stop
         style="stop-color:#7dbdff;stop-opacity:1"
         id="stop7" />
      <stop
         offset="1"
         style="stop-color:#91c8ff;stop-opacity:1"
         id="stop9" />
    </linearGradient>
  </defs>
  <g
     id="g11">
    <path
       d="m 36.31 5 c 5.859 4.062 9.688 10.831 9.688 18.5 c 0 12.426 -10.07 22.5 -22.5 22.5 c -7.669 0 -14.438 -3.828 -18.5 -9.688 c 1.037 1.822 2.306 3.499 3.781 4.969 c 4.085 3.712 9.514 5.969 15.469 5.969 c 12.703 0 23 -10.298 23 -23 c 0 -5.954 -2.256 -11.384 -5.969 -15.469 c -1.469 -1.475 -3.147 -2.744 -4.969 -3.781 z m 4.969 3.781 c 3.854 4.113 6.219 9.637 6.219 15.719 c 0 12.703 -10.297 23 -23 23 c -6.081 0 -11.606 -2.364 -15.719 -6.219 c 4.16 4.144 9.883 6.719 16.219 6.719 c 12.703 0 23 -10.298 23 -23 c 0 -6.335 -2.575 -12.06 -6.719 -16.219 z"
       style="opacity:0.05"
       id="path13" />
    <path
       d="m 41.28 8.781 c 3.712 4.085 5.969 9.514 5.969 15.469 c 0 12.703 -10.297 23 -23 23 c -5.954 0 -11.384 -2.256 -15.469 -5.969 c 4.113 3.854 9.637 6.219 15.719 6.219 c 12.703 0 23 -10.298 23 -23 c 0 -6.081 -2.364 -11.606 -6.219 -15.719 z"
       style="opacity:0.1"
       id="path15" />
    <path
       d="m 31.25 2.375 c 8.615 3.154 14.75 11.417 14.75 21.13 c 0 12.426 -10.07 22.5 -22.5 22.5 c -9.708 0 -17.971 -6.135 -21.12 -14.75 a 23 23 0 0 0 44.875 -7 a 23 23 0 0 0 -16 -21.875 z"
       style="opacity:0.2"
       id="path17" />
  </g>
  <g
     id="g19"
     style="fill:#e6e6e6;fill-opacity:1">
    <path
       d="m 24 1 c 12.703 0 23 10.297 23 23 c 0 12.703 -10.297 23 -23 23 -12.703 0 -23 -10.297 -23 -23 0 -12.703 10.297 -23 23 -23 z"
       style="fill:#e6e6e6;fill-opacity:1"
       id="path21" />
  </g>
  <g
     id="g23">
    <g
       id="g25">
      <g
         transform="translate(1,1)"
         id="g27">
        <g
           style="opacity:0.1"
           id="g29">
          <!-- color: #91c8ff -->
          <g
             id="g31">
            <path
               d="m 23 30.5 c 0 3.039 -2.461 5.5 -5.5 5.5 c -3.039 0 -5.5 -2.461 -5.5 -5.5 c 0 -3.039 2.461 -5.5 5.5 -5.5 c 3.039 0 5.5 2.461 5.5 5.5 m 0 0"
               style="fill:#000;fill-opacity:1;stroke:none;fill-rule:nonzero"
               id="path33" />
            <path
               d="m 36 30.5 c 0 3.039 -2.461 5.5 -5.5 5.5 c -3.039 0 -5.5 -2.461 -5.5 -5.5 c 0 -3.039 2.461 -5.5 5.5 -5.5 c 3.039 0 5.5 2.461 5.5 5.5 m 0 0"
               style="fill:#000;fill-opacity:1;stroke:none;fill-rule:nonzero"
               id="path35" />
            <path
               d="m 23 17.5 c 0 3.039 -2.461 5.5 -5.5 5.5 c -3.039 0 -5.5 -2.461 -5.5 -5.5 c 0 -3.039 2.461 -5.5 5.5 -5.5 c 3.039 0 5.5 2.461 5.5 5.5 m 0 0"
               style="fill:#000;fill-opacity:1;stroke:none;fill-rule:nonzero"
               id="path37" />
            <path
               d="m 36 17.5 c 0 3.039 -2.461 5.5 -5.5 5.5 c -3.039 0 -5.5 -2.461 -5.5 -5.5 c 0 -3.039 2.461 -5.5 5.5 -5.5 c 3.039 0 5.5 2.461 5.5 5.5 m 0 0"
               style="fill:#000;fill-opacity:1;stroke:none;fill-rule:nonzero"
               id="path39" />
          </g>
        </g>
      </g>
    </g>
  </g>
  <g
     id="g41">
    <g
       id="g43">
      <!-- color: #91c8ff -->
      <g
         id="g45">
        <path
           d="m 23 30.5 c 0 3.039 -2.461 5.5 -5.5 5.5 c -3.039 0 -5.5 -2.461 -5.5 -5.5 c 0 -3.039 2.461 -5.5 5.5 -5.5 c 3.039 0 5.5 2.461 5.5 5.5 m 0 0"
           style="fill:#08b9f8;fill-opacity:1;stroke:none;fill-rule:nonzero"
           id="path47" />
        <path
           d="m 36 30.5 c 0 3.039 -2.461 5.5 -5.5 5.5 c -3.039 0 -5.5 -2.461 -5.5 -5.5 c 0 -3.039 2.461 -5.5 5.5 -5.5 c 3.039 0 5.5 2.461 5.5 5.5 m 0 0"
           style="fill:#fcffda;fill-opacity:1;stroke:none;fill-rule:nonzero"
           id="path49" />
        <path
           d="m 23 17.5 c 0 3.039 -2.461 5.5 -5.5 5.5 c -3.039 0 -5.5 -2.461 -5.5 -5.5 c 0 -3.039 2.461 -5.5 5.5 -5.5 c 3.039 0 5.5 2.461 5.5 5.5 m 0 0"
           style="fill:#faffc6;fill-opacity:1;stroke:none;fill-rule:nonzero"
           id="path51" />
        <path
           d="m 36 17.5 c 0 3.039 -2.461 5.5 -5.5 5.5 c -3.039 0 -5.5 -2.461 -5.5 -5.5 c 0 -3.039 2.461 -5.5 5.5 -5.5 c 3.039 0 5.5 2.461 5.5 5.5 m 0 0"
           style="fill:#00c1ff;fill-opacity:1;stroke:none;fill-rule:nonzero"
           id="path53" />
      </g>
    </g>
  </g>
  <g
     id="g55">
    <path
       d="m 40.03 7.531 c 3.712 4.084 5.969 9.514 5.969 15.469 0 12.703 -10.297 23 -23 23 c -5.954 0 -11.384 -2.256 -15.469 -5.969 4.178 4.291 10.01 6.969 16.469 6.969 c 12.703 0 23 -10.298 23 -23 0 -6.462 -2.677 -12.291 -6.969 -16.469 z"
       style="opacity:0.1"
       id="path57" />
  </g>
</svg>

<?xml version="1.0" encoding="UTF-8" standalone="no"?>
<svg
   xmlns:dc="http://purl.org/dc/elements/1.1/"
   xmlns:cc="http://creativecommons.org/ns#"
   xmlns:rdf="http://www.w3.org/1999/02/22-rdf-syntax-ns#"
   xmlns:svg="http://www.w3.org/2000/svg"
   xmlns="http://www.w3.org/2000/svg"
   xmlns:sodipodi="http://sodipodi.sourceforge.net/DTD/sodipodi-0.dtd"
   xmlns:inkscape="http://www.inkscape.org/namespaces/inkscape"
   viewBox="0 0 48 48"
   id="svg2"
   version="1.1"
   inkscape:version="0.92.1 r"
   sodipodi:docname="qgo.svg"
   width="51.200001"
   height="51.200001">
  <metadata
     id="metadata61">
    <rdf:RDF>
      <cc:Work
         rdf:about="">
        <dc:format>image/svg+xml</dc:format>
        <dc:type
           rdf:resource="http://purl.org/dc/dcmitype/StillImage" />
      </cc:Work>
    </rdf:RDF>
  </metadata>
  <sodipodi:namedview
     pagecolor="#ffffff"
     bordercolor="#666666"
     borderopacity="1"
     objecttolerance="10"
     gridtolerance="10"
     guidetolerance="10"
     inkscape:pageopacity="0"
     inkscape:pageshadow="2"
     inkscape:window-width="819"
     inkscape:window-height="480"
     id="namedview59"
     showgrid="false"
     inkscape:zoom="4.9166667"
     inkscape:cx="24"
     inkscape:cy="24"
     inkscape:window-x="66"
     inkscape:window-y="31"
     inkscape:window-maximized="0"
     inkscape:current-layer="svg2" />
  <defs
     id="defs4">
    <linearGradient
       id="linearGradient3764"
       x1="1"
       x2="47"
       gradientUnits="userSpaceOnUse"
       gradientTransform="rotate(-90,23.999998,24)">
      <stop
         style="stop-color:#7dbdff;stop-opacity:1"
         id="stop7" />
      <stop
         offset="1"
         style="stop-color:#91c8ff;stop-opacity:1"
         id="stop9" />
    </linearGradient>
  </defs>
  <g
     id="g11">
    <path
       d="m 36.31,5 c 5.859,4.062 9.688,10.831 9.688,18.5 0,12.426 -10.07,22.5 -22.5,22.5 -7.669,0 -14.438,-3.828 -18.5,-9.688 1.037,1.822 2.306,3.499 3.781,4.969 4.085,3.712 9.514,5.969 15.469,5.969 12.703,0 23,-10.298 23,-23 0,-5.954 -2.256,-11.384 -5.969,-15.469 C 39.81,7.306 38.132,6.037 36.31,5 Z m 4.969,3.781 c 3.854,4.113 6.219,9.637 6.219,15.719 0,12.703 -10.297,23 -23,23 -6.081,0 -11.606,-2.364 -15.719,-6.219 4.16,4.144 9.883,6.719 16.219,6.719 12.703,0 23,-10.298 23,-23 0,-6.335 -2.575,-12.06 -6.719,-16.219 z"
       style="opacity:0.05"
       id="path13"
       inkscape:connector-curvature="0" />
    <path
       d="m 41.28,8.781 c 3.712,4.085 5.969,9.514 5.969,15.469 0,12.703 -10.297,23 -23,23 -5.954,0 -11.384,-2.256 -15.469,-5.969 4.113,3.854 9.637,6.219 15.719,6.219 12.703,0 23,-10.298 23,-23 0,-6.081 -2.364,-11.606 -6.219,-15.719 z"
       style="opacity:0.1"
       id="path15"
       inkscape:connector-curvature="0" />
    <path
       d="M 31.25,2.375 C 39.865,5.529 46,13.792 46,23.505 c 0,12.426 -10.07,22.5 -22.5,22.5 -9.708,0 -17.971,-6.135 -21.12,-14.75 a 23,23 0 0 0 44.875,-7 23,23 0 0 0 -16,-21.875 z"
       style="opacity:0.2"
       id="path17"
       inkscape:connector-curvature="0" />
  </g>
  <g
     id="g19"
     style="fill:#ececec;fill-opacity:1">
    <path
       d="M 24,1 C 36.703,1 47,11.297 47,24 47,36.703 36.703,47 24,47 11.297,47 1,36.703 1,24 1,11.297 11.297,1 24,1 Z"
       style="fill:#ececec;fill-opacity:1"
       id="path21"
       inkscape:connector-curvature="0" />
  </g>
  <g
     id="g23">
    <g
       id="g25">
      <g
         transform="translate(1,1)"
         id="g27">
        <g
           style="opacity:0.1"
           id="g29">
          <!-- color: #91c8ff -->
          <g
             id="g31">
            <path
               d="M 23,30.5 C 23,33.539 20.539,36 17.5,36 14.461,36 12,33.539 12,30.5 12,27.461 14.461,25 17.5,25 c 3.039,0 5.5,2.461 5.5,5.5 m 0,0"
               style="fill:#000000;fill-opacity:1;fill-rule:nonzero;stroke:none"
               id="path33"
               inkscape:connector-curvature="0" />
            <path
               d="M 36,30.5 C 36,33.539 33.539,36 30.5,36 27.461,36 25,33.539 25,30.5 25,27.461 27.461,25 30.5,25 c 3.039,0 5.5,2.461 5.5,5.5 m 0,0"
               style="fill:#000000;fill-opacity:1;fill-rule:nonzero;stroke:none"
               id="path35"
               inkscape:connector-curvature="0" />
            <path
               d="M 23,17.5 C 23,20.539 20.539,23 17.5,23 14.461,23 12,20.539 12,17.5 12,14.461 14.461,12 17.5,12 c 3.039,0 5.5,2.461 5.5,5.5 m 0,0"
               style="fill:#000000;fill-opacity:1;fill-rule:nonzero;stroke:none"
               id="path37"
               inkscape:connector-curvature="0" />
            <path
               d="M 36,17.5 C 36,20.539 33.539,23 30.5,23 27.461,23 25,20.539 25,17.5 25,14.461 27.461,12 30.5,12 c 3.039,0 5.5,2.461 5.5,5.5 m 0,0"
               style="fill:#000000;fill-opacity:1;fill-rule:nonzero;stroke:none"
               id="path39"
               inkscape:connector-curvature="0" />
          </g>
        </g>
      </g>
    </g>
  </g>
  <g
     id="g41">
    <g
       id="g43">
      <!-- color: #91c8ff -->
      <g
         id="g45">
        <path
           d="M 23,30.5 C 23,33.539 20.539,36 17.5,36 14.461,36 12,33.539 12,30.5 12,27.461 14.461,25 17.5,25 c 3.039,0 5.5,2.461 5.5,5.5 m 0,0"
           style="fill:#08b9f8;fill-opacity:1;fill-rule:nonzero;stroke:none"
           id="path47"
           inkscape:connector-curvature="0" />
        <path
           d="M 36,30.5 C 36,33.539 33.539,36 30.5,36 27.461,36 25,33.539 25,30.5 25,27.461 27.461,25 30.5,25 c 3.039,0 5.5,2.461 5.5,5.5 m 0,0"
           style="fill:#fcffda;fill-opacity:1;fill-rule:nonzero;stroke:none"
           id="path49"
           inkscape:connector-curvature="0" />
        <path
           d="M 23,17.5 C 23,20.539 20.539,23 17.5,23 14.461,23 12,20.539 12,17.5 12,14.461 14.461,12 17.5,12 c 3.039,0 5.5,2.461 5.5,5.5 m 0,0"
           style="fill:#faffc6;fill-opacity:1;fill-rule:nonzero;stroke:none"
           id="path51"
           inkscape:connector-curvature="0" />
        <path
           d="M 36,17.5 C 36,20.539 33.539,23 30.5,23 27.461,23 25,20.539 25,17.5 25,14.461 27.461,12 30.5,12 c 3.039,0 5.5,2.461 5.5,5.5 m 0,0"
           style="fill:#00c1ff;fill-opacity:1;fill-rule:nonzero;stroke:none"
           id="path53"
           inkscape:connector-curvature="0" />
      </g>
    </g>
  </g>
  <g
     id="g55">
    <path
       d="m 40.03,7.531 c 3.712,4.084 5.969,9.514 5.969,15.469 0,12.703 -10.297,23 -23,23 C 17.045,46 11.615,43.744 7.53,40.031 11.708,44.322 17.54,47 23.999,47 c 12.703,0 23,-10.298 23,-23 0,-6.462 -2.677,-12.291 -6.969,-16.469 z"
       style="opacity:0.1"
       id="path57"
       inkscape:connector-curvature="0" />
  </g>
</svg>
